X:1
T:Paddy Taylor's Reel #2
C:Paddy Taylor
R:reel
Z:id:hn-reel-568
M:C|
K:Dmix
FEDF ABAF|GEcE dEcE|FEDF ~A3F|1 GEcE EDDE:|2 GEcE EDD2||
Add^c d2ed|(3B^cd ef gfge|Add^c d2ed|=cAGE EDD2|
Add^c d2ed|(3B^cd ef g2fg|afge d2^cA|(3B^cd AG FDDE||
~F3G ABcA|~G2dG ~G2dG|~F3G Addc|(3ABA GE EDDE|
~F3G ABcA|~G2dG eGdG|~F3G Addc|(3ABA GE EDDE||
